X: 1
T: Farewell to Nova Scotia
C: _
R: song
Z: 2020 John Chambers <jc:trillian.mit.edu>
S: https://www.8notes.com/scores/4450.asp 2020-3-6
S: https://tabs.ultimate-guitar.com/tab/misc-traditional/farewell-to-nova-scotia-chords-720254
M: C
L: 1/8
K: Em
z6 G2 |\
"G"G3A G2(B,C) | D2(DB,) D2(GF) | "Em"E3F GGA2 | B2(E^D) E2(G>A) |\
"G"B3B "D"A2(AF) | D2(DF) A2(G>A) | "Em"(BG)(GF) "C"(EF)(ED) | "Em"B,2E2 E2(E>F) |
"G"G>F G>A G2B,C | D2(DB,) D2 GF | "Em"E3F G2A2 | B2(E^D) E2G>A |\
"G"BBB>A "D"A2AF | DDDF A2(G>A) | "Em"BAGF "C"(EF)ED | "Em"B,2E2 HE2z2 |]

%%sep 1 1 500
%%sep 1 1 500

